lib/radiotmp/nrk-hardware-camera-expressive.svg

<svg width="24" height="24" viewBox="0 0 24 24" fill="none" xmlns="http://www.w3.org/2000/svg">
<path fill-rule="evenodd" clip-rule="evenodd" d="M8 5C8 3.89543 8.89543 3 10 3H14C15.1046 3 16 3.89543 16 5H20C21.6569 5 23 6.34315 23 8V18C23 19.6569 21.6569 21 20 21H4C2.34315 21 1 19.6569 1 18V8C1 6.34315 2.34315 5 4 5H8ZM14 6C14 6.55228 14.4477 7 15 7H20C20.5523 7 21 7.44772 21 8V18C21 18.5523 20.5523 19 20 19H4C3.44772 19 3 18.5523 3 18V8C3 7.44771 3.44772 7 4 7H9C9.55229 7 10 6.55228 10 6V5H14V6ZM14 13C14 14.1046 13.1046 15 12 15C10.8954 15 10 14.1046 10 13C10 11.8954 10.8954 11 12 11C13.1046 11 14 11.8954 14 13ZM16 13C16 15.2091 14.2091 17 12 17C9.79086 17 8 15.2091 8 13C8 10.7909 9.79086 9 12 9C14.2091 9 16 10.7909 16 13Z" fill="black"/>
</svg>

<svg xmlns="http://www.w3.org/2000/svg" viewBox="0 0 24 24"><path fill="#000" fill-rule="evenodd" d="M8 5a2 2 0 0 1 2-2h4a2 2 0 0 1 2 2h4a3 3 0 0 1 3 3v10a3 3 0 0 1-3 3H4a3 3 0 0 1-3-3V8a3 3 0 0 1 3-3h4Zm6 1a1 1 0 0 0 1 1h5a1 1 0 0 1 1 1v10a1 1 0 0 1-1 1H4a1 1 0 0 1-1-1V8a1 1 0 0 1 1-1h5a1 1 0 0 0 1-1V5h4v1Zm0 7a2 2 0 1 1-4 0 2 2 0 0 1 4 0Zm2 0a4 4 0 1 1-8 0 4 4 0 0 1 8 0Z" clip-rule="evenodd"/></svg>
